X:1
T:Reaper Of Glenree, The
T:Reaper Of Glanree, The
R:setdance
M:4/4
L:1/8
Q:1/4=150
K:Emin
|:B|~E3F GFGA|Beed eBcA|(3BcB (3AGF GEFD|GEFG B2 B2|
 |~E3F GFGA|Bega fdeB|(3cdc (3BAG ABGE|GE (3GFE E3:|
B|~e3f (3gfe (3fed|efdB (3cdc BG|~E3F GFGA|Bega ~b3a|
  b2(3bag ab (3gfe|f2 (3fgf edeB|(3cdc BA BGAF|GBGF E2EF|
 ~G3 A GFEF| DFEG B2 ef|ga (3gfe fg (3fed|efdB e2 ef|
 ~g3a gfeg|fedf ~B3 c|de (3BAG ABEG| AGFG (3EFE DF|
 ~G3 A GFD2|EGBd e2 de|(3BcB (3AGF GEFD|GE (3GFE E3||
